app/_assets/images/Kogo.svg

<svg height="32" viewBox="0 0 96 32" width="96" xmlns="http://www.w3.org/2000/svg"><g fill="#fff" fill-rule="evenodd"><path d="m11.5197255 26.1503163-.8635306 1.0892615 1.9496675 3.0352708-.2028406 1.4047695h8.2698045l.5715827-1.4047695-3.3235398-4.1245323z"/><path d="m16.0419367 7.67885738-2.9904407 5.21734602 14.5902655 17.2066497-.416374 1.5768941h6.6917954l1.2131552-5.5967952-15.6138652-18.40926159z"/><path d="m22.2409849.3230001-4.2139647 3.43183563-1.4202081 2.61190239h3.5270285l6.0583236 7.18176278 3.6022026-2.9461407v-1.87238004l-1.2526864-1.75031045.9247716-.95814965z"/><path d="m7.16694787 18.2954268h-1.97137726l-5.195441 6.5756128v6.8087722h5.57390395l.9827724-1.276564 4.30177584-5.5493238h6.2183927l1.9146726-2.9222434-6.7436396-7.9771529z"/><g transform="translate(41.69697 7.789676)"><path d="m18.8590803 15.8711309c-1.2517144 0-1.8997674-.2005429-2.4363553-.7572837-.8045578-.8021718-1.1175674-1.9159764-1.1175674-5.36912579 0-3.475109.3130096-4.56663101 1.1175674-5.39108536.513906-.53445827 1.1846409-.73500122 2.4363553-.73500122h4.1799419c1.2517144 0 1.9000914.20054295 2.4363553.73500122.8048818.82445435 1.1178914 1.91597636 1.1178914 5.39108536 0 3.47543189-.3130096 4.56695399-1.1178914 5.36912579-.5362639.5567408-1.1846409.7572837-2.4363553.7572837zm-.1561808-2.6978032h4.4929515v-6.86141073h-4.4929515z"/><path d="m36.7556798 7.49608918c.0012962.04230455.0022682.08654671.0022682.13240356v8.24260586h3.4200998v-8.64369176c0-1.80424068-.2015445-2.45043463-.7154505-2.94065074-.4695144-.46761061-1.1399253-.69043611-2.1907432-.69043611h-1.4973265c-.1840471 0-.3512447.00581284-.5087216.02163668h-.9999458l-1.723173 1.54944456v-1.32920255-.22024201h-1.1548305v.00064587h-2.2523082v12.25249606h3.4200998v-8.37500942h-.0006481v-1.13705592h1.9075441c.012637-.00032294.02495-.00032294.0379111-.00032294h.9610626c.0184695 0 .036615 0 .0544364.00032294h1.2406975v1.13705592z"/><path d="m9.95991911.23081531h4.06977289l-5.84608619 7.37261763 6.09331839 8.31397466h-4.31700509l-4.63455111-6.53233946-1.09909791-.00516697v6.53750643h-3.66506381v-15.68659229h3.66506381v6.08055267h1.09747778z"/><path d="m46.1939239 13.1776873h4.4929515v-6.8659318h-4.4929515zm4.4712418-9.55985981v1.54944457l-1.723173-1.54944457-2.5688821-.02163667c-1.2296806 0-1.9448071.2228255-2.5037528.7576067-.7374844.75728376-1.0952096 2.4110365-1.0952096 5.44081743 0 3.00717545.2906517 4.61636305 1.0057782 5.35136425.5589458.5347812 1.2238482.7802122 2.542636.7802122l4.3364468.0025835.0061565 1.7470811h-6.3574001l.0048604.7224067 1.5546792 1.7173711 5.0431485.0103339c1.2517144 0 1.9671649-.2225026 2.4139975-.6904361.5589457-.5793463.782524-.9378047.782524-3.0540011v-12.7627342z"/></g></g></svg>

<svg width="96px" height="32px" viewBox="0 0 96 32" version="1.1" xmlns="http://www.w3.org/2000/svg" xmlns:xlink="http://www.w3.org/1999/xlink">
    <!-- Generator: Sketch 44.1 (41455) - http://www.bohemiancoding.com/sketch -->
    <title>Kogo 4.5x</title>
    <desc>Created with Sketch.</desc>
    <defs></defs>
    <g id="Responsive" stroke="none" stroke-width="1" fill="none" fill-rule="evenodd">
        <g id="Company-About-standard" transform="translate(-64.000000, -19.000000)" fill="#FFFFFF">
            <g id="header-blue-01">
                <g id="Kogo-4.5x" transform="translate(64.000000, 19.000000)">
                    <polygon id="Fill-1" points="11.5197255 26.1503163 10.6561949 27.2395778 12.6058624 30.2748486 12.4030218 31.6796181 20.6728263 31.6796181 21.244409 30.2748486 17.9208692 26.1503163"></polygon>
                    <polygon id="Fill-2" points="16.0419367 7.67885738 13.051496 12.8962034 27.6417615 30.1028531 27.2253875 31.6797472 33.9171829 31.6797472 35.1303381 26.082952 19.5164729 7.67369041"></polygon>
                    <polygon id="Fill-3" points="22.2409849 0.323000095 18.0270202 3.75483573 16.6068121 6.36673812 20.1338406 6.36673812 26.1921642 13.5485009 29.7943668 10.6023602 29.7943668 8.72998016 28.5416804 6.97966971 29.466452 6.02152006"></polygon>
                    <polygon id="Fill-4" points="7.16694787 18.2954268 5.19557061 18.2954268 0.000129610602 24.8710396 0.000129610602 31.6798118 5.57403356 31.6798118 6.55680596 30.4032478 10.8585818 24.853924 17.0769745 24.853924 18.9916471 21.9316806 12.2480075 13.9545277"></polygon>
                    <g id="Group-13" transform="translate(41.696970, 7.789676)">
                        <path d="M18.8590803,15.8711309 C17.6073659,15.8711309 16.9593129,15.670588 16.422725,15.1138472 C15.6181672,14.3116754 15.3051576,13.1978708 15.3051576,9.74472141 C15.3051576,6.26961241 15.6181672,5.1780904 16.422725,4.35363605 C16.936631,3.81917778 17.6073659,3.61863483 18.8590803,3.61863483 L23.0390222,3.61863483 C24.2907366,3.61863483 24.9391136,3.81917778 25.4753775,4.35363605 C26.2802593,5.1780904 26.5932689,6.26961241 26.5932689,9.74472141 C26.5932689,13.2201533 26.2802593,14.3116754 25.4753775,15.1138472 C24.9391136,15.670588 24.2907366,15.8711309 23.0390222,15.8711309 L18.8590803,15.8711309 Z M18.7028995,13.1733277 L23.195851,13.1733277 L23.195851,6.31191697 L18.7028995,6.31191697 L18.7028995,13.1733277 Z" id="Fill-5"></path>
                        <path d="M36.7556798,7.49608918 C36.756976,7.53839373 36.757948,7.58263589 36.757948,7.62849274 L36.757948,15.8710986 L40.1780478,15.8710986 L40.1780478,7.22740684 C40.1780478,5.42316616 39.9765033,4.77697221 39.4625973,4.2867561 C38.9930829,3.81914549 38.322672,3.59631999 37.2718541,3.59631999 L35.7745276,3.59631999 C35.5904805,3.59631999 35.4232829,3.60213283 35.265806,3.61795667 L34.2658602,3.61795667 L32.5426872,5.16740123 L32.5426872,3.83819868 L32.5426872,3.61795667 L31.3878567,3.61795667 L31.3878567,3.61860254 L29.1355485,3.61860254 L29.1355485,15.8710986 L32.5556483,15.8710986 L32.5556483,7.49608918 L32.5550002,7.49608918 L32.5550002,6.35903326 L34.4625443,6.35903326 C34.4751813,6.35871032 34.4874943,6.35871032 34.5004554,6.35871032 L35.461518,6.35871032 C35.4799875,6.35871032 35.498133,6.35871032 35.5159544,6.35903326 L36.7566519,6.35903326 L36.7566519,7.49608918 L36.7556798,7.49608918 Z" id="Fill-7"></path>
                        <polygon id="Fill-9" points="9.95991911 0.230815305 14.029692 0.230815305 8.18360581 7.60343294 14.2769242 15.9174076 9.95991911 15.9174076 5.325368 9.38506814 4.22627009 9.37990117 4.22627009 15.9174076 0.561206284 15.9174076 0.561206284 0.230815305 4.22627009 0.230815305 4.22627009 6.31136798 5.32374787 6.31136798"></polygon>
                        <path d="M46.1939239,13.1776873 L50.6868754,13.1776873 L50.6868754,6.3117555 L46.1939239,6.3117555 L46.1939239,13.1776873 Z M50.6651657,3.61782749 L50.6651657,5.16727206 L48.9419927,3.61782749 L46.3731106,3.59619082 C45.14343,3.59619082 44.4283035,3.81901632 43.8693578,4.35379752 C43.1318734,5.11108128 42.7741482,6.76483402 42.7741482,9.79461495 C42.7741482,12.8017904 43.0647999,14.410978 43.7799264,15.1459792 C44.3388722,15.6807604 45.0037746,15.9261914 46.3225624,15.9261914 L50.6590092,15.9287749 L50.6651657,17.675856 L44.3077656,17.675856 L44.312626,18.3982627 L45.8673052,20.1156338 L50.9104537,20.1259677 C52.1621681,20.1259677 52.8776186,19.9034651 53.3244512,19.4355316 C53.8833969,18.8561853 54.1069752,18.4977269 54.1069752,16.3815305 L54.1069752,3.6187963 L50.6651657,3.61782749 Z" id="Fill-11"></path>
                    </g>
                </g>
            </g>
        </g>
    </g>
</svg>
